nameplates/calico.svg

<svg width="1051" height="528" viewBox="0 0 1051 528" fill="none" xmlns="http://www.w3.org/2000/svg">
<g clip-path="url(#clip0_22600_317)">
<path d="M374.706 475.771H306.638L291.267 387.99H220.454L205.084 475.771H163.913V451.082H178.186L248.999 50.5835H289.072L360.434 451.082H374.706V475.771ZM286.327 363.85L255.586 187.192L225.395 363.85H286.327Z" fill="white"/>
<path d="M549.818 475.771H387.881V451.082H403.251V76.9178H387.881V52.2295H477.358V76.9178H460.89V451.082H514.137L525.116 384.15H549.818V475.771Z" fill="white"/>
<path d="M660.155 475.771H571.776V451.082H587.146V76.9178H571.776V52.2295H660.155V76.9178H645.334V451.082H660.155V475.771Z" fill="white"/>
<path d="M1051 264C1051 447.79 1002.69 480.16 956.033 480.16C909.373 480.16 861.616 447.79 861.616 264C861.616 80.2094 909.373 47.8403 956.033 47.8403C1002.69 47.8403 1051 80.2094 1051 264ZM987.872 264C987.872 97.7655 956.033 72.5286 956.033 72.5286C956.033 72.5286 924.744 97.7655 924.744 264C924.744 430.234 956.033 455.471 956.033 455.471C956.033 455.471 987.872 430.234 987.872 264Z" fill="white"/>
<path d="M844.598 53.8754C844.598 53.8754 828.679 49.4863 812.76 49.4863C768.845 49.4863 696.385 65.9452 696.385 262.903C696.385 459.86 768.845 478.514 814.407 478.514C830.875 478.514 844.598 474.673 844.598 474.673V450.534C839.658 451.631 833.071 453.277 825.935 453.277C797.39 453.277 759.513 430.234 759.513 262.903C759.513 203.761 765.222 161.187 771.919 131.451C781.141 82.5138 793.547 72.5287 793.547 72.5287C793.547 72.5287 802.111 79.3317 810.454 109.287H844.708V53.8754H844.598Z" fill="white"/>
<path d="M81.6822 358.364C81.6822 358.364 77.7299 297.357 77.7299 262.574C77.7299 84.3791 114.838 31.0524 137.784 31.0524C139.76 31.0524 143.163 31.0524 144.591 31.7107L152.056 73.6259H182.468V5.37656C182.468 5.37656 162.925 0 143.273 0C89.1478 0 0 20.2993 0 262.683C0 505.067 89.1478 528 145.249 528C165.56 528 182.358 523.282 182.358 523.282C82.9997 499.581 82.2312 369.776 81.5724 358.474L81.6822 358.364Z" fill="white"/>
</g>
<defs>
<clipPath id="clip0_22600_317">
<rect width="1051" height="528" fill="white"/>
</clipPath>
</defs>
</svg>

<svg xmlns="http://www.w3.org/2000/svg" width="1051" height="528" fill="none"><g fill="#fff" clip-path="url(#a)"><path d="M374.706 475.771h-68.068l-15.371-87.781h-70.813l-15.37 87.781h-41.171v-24.689h14.273l70.813-400.498h40.073l71.362 400.498h14.272zM286.327 363.85l-30.741-176.658-30.191 176.658zm263.491 111.921H387.881v-24.689h15.37V76.918h-15.37V52.229h89.477v24.689H460.89v374.164h53.247l10.979-66.932h24.702zm110.337 0h-88.379v-24.689h15.37V76.918h-15.37V52.229h88.379v24.689h-14.821v374.164h14.821zM1051 264c0 183.79-48.31 216.16-94.967 216.16-46.66 0-94.417-32.37-94.417-216.16s47.757-216.16 94.417-216.16C1002.69 47.84 1051 80.21 1051 264m-63.128 0c0-166.234-31.839-191.471-31.839-191.471S924.744 97.766 924.744 264s31.289 191.471 31.289 191.471S987.872 430.234 987.872 264M844.598 53.875s-15.919-4.389-31.838-4.389c-43.915 0-116.375 16.46-116.375 213.417s72.46 215.611 118.022 215.611c16.468 0 30.191-3.841 30.191-3.841v-24.139c-4.94 1.097-11.527 2.743-18.663 2.743-28.545 0-66.422-23.043-66.422-190.374 0-59.142 5.709-101.716 12.406-131.452 9.222-48.937 21.628-58.922 21.628-58.922s8.564 6.803 16.907 36.758h34.254V53.875z"/><path d="M81.682 358.364s-3.952-61.007-3.952-95.79c0-178.195 37.108-231.522 60.054-231.522 1.976 0 5.379 0 6.807.659l7.465 41.915h30.412V5.376S162.925 0 143.273 0C89.148 0 0 20.3 0 262.683 0 505.067 89.148 528 145.249 528c20.311 0 37.109-4.718 37.109-4.718C83 499.581 82.231 369.776 81.572 358.474z"/></g><defs><clipPath id="a"><path fill="#fff" d="M0 0h1051v528H0z"/></clipPath></defs></svg>
